img/OPEN LOGISTICS.svg

<svg width="1859" height="177" viewBox="0 0 1859 177" fill="none" xmlns="http://www.w3.org/2000/svg">
<g opacity="0.5">
<path d="M34.6005 88.5C34.6005 98.7675 36.7391 107.886 41.0164 115.855C45.2938 123.823 51.1751 130.107 58.6604 134.704C66.1457 139.301 74.8531 141.6 84.7826 141.6C94.7121 141.6 103.42 139.301 110.905 134.704C118.39 130.107 124.195 123.823 128.32 115.855C132.597 107.886 134.736 98.7675 134.736 88.5C134.736 78.2325 132.673 69.1143 128.549 61.1455C124.424 53.1766 118.619 46.8935 111.134 42.2961C103.649 37.6987 94.8649 35.4 84.7826 35.4C74.8531 35.4 66.1457 37.6987 58.6604 42.2961C51.1751 46.8935 45.2938 53.1766 41.0164 61.1455C36.7391 69.1143 34.6005 78.2325 34.6005 88.5ZM0 88.5C0 76.2403 2.13866 65.0533 6.41598 54.939C10.6933 44.6714 16.651 35.7831 24.2891 28.274C31.9271 20.7649 40.8637 15.0182 51.0987 11.0338C61.4865 6.8961 72.7145 4.82727 84.7826 4.82727C97.0035 4.82727 108.231 6.8961 118.467 11.0338C128.702 15.0182 137.638 20.7649 145.276 28.274C153.067 35.7831 159.025 44.6714 163.149 54.939C167.427 65.0533 169.565 76.2403 169.565 88.5C169.565 100.606 167.427 111.87 163.149 122.291C159.025 132.558 153.143 141.523 145.505 149.186C138.02 156.848 129.083 162.825 118.696 167.116C108.461 171.253 97.1563 173.322 84.7826 173.322C72.4089 173.322 61.0282 171.253 50.6404 167.116C40.4054 162.825 31.4689 156.848 23.8308 149.186C16.1927 141.523 10.3114 132.558 6.18684 122.291C2.06228 111.87 0 100.606 0 88.5Z" fill="#B0C7C8"/>
<path d="M194.896 8.04545H227.663V168.955H194.896V8.04545ZM214.832 35.8597V8.04545H246.682C259.361 8.04545 270.131 10.1143 278.991 14.2519C288.004 18.3896 294.879 24.2896 299.614 31.952C304.35 39.6143 306.718 48.7325 306.718 59.3065C306.718 69.7273 304.35 78.8455 299.614 86.661C294.879 94.3234 288.004 100.223 278.991 104.361C270.131 108.499 259.361 110.568 246.682 110.568H214.832V82.7533H246.682C255.39 82.7533 262.264 80.761 267.305 76.7766C272.346 72.7922 274.867 66.9688 274.867 59.3065C274.867 51.4909 272.346 45.6675 267.305 41.8364C262.264 37.8519 255.39 35.8597 246.682 35.8597H214.832Z" fill="#B0C7C8"/>
<path d="M353.149 168.955V141.14H434.036V168.955H353.149ZM353.149 35.8597V8.04545H434.036V35.8597H353.149ZM353.149 97.2351V69.8805H429.454V97.2351H353.149ZM332.068 8.04545H363.69V168.955H332.068V8.04545Z" fill="#B0C7C8"/>
<path d="M580.444 8.04545H612.066V177L497.953 69.1909V168.955H466.331V0L580.444 107.809V8.04545Z" fill="#B0C7C8"/>
<path d="M715.613 8.04545H748.38V140.221H812.311V168.955H715.613V8.04545Z" fill="#B0C7C8"/>
<path d="M849.577 88.5C849.577 98.7675 851.716 107.886 855.993 115.855C860.27 123.823 866.151 130.107 873.637 134.704C881.122 139.301 889.829 141.6 899.759 141.6C909.688 141.6 918.396 139.301 925.881 134.704C933.367 130.107 939.171 123.823 943.296 115.855C947.573 107.886 949.712 98.7675 949.712 88.5C949.712 78.2325 947.65 69.1143 943.525 61.1455C939.401 53.1766 933.596 46.8935 926.11 42.2961C918.625 37.6987 909.841 35.4 899.759 35.4C889.829 35.4 881.122 37.6987 873.637 42.2961C866.151 46.8935 860.27 53.1766 855.993 61.1455C851.716 69.1143 849.577 78.2325 849.577 88.5ZM814.976 88.5C814.976 76.2403 817.115 65.0533 821.392 54.939C825.67 44.6714 831.627 35.7831 839.265 28.274C846.904 20.7649 855.84 15.0182 866.075 11.0338C876.463 6.8961 887.691 4.82727 899.759 4.82727C911.98 4.82727 923.208 6.8961 933.443 11.0338C943.678 15.0182 952.614 20.7649 960.253 28.274C968.043 35.7831 974.001 44.6714 978.126 54.939C982.403 65.0533 984.542 76.2403 984.542 88.5C984.542 100.606 982.403 111.87 978.126 122.291C974.001 132.558 968.12 141.523 960.482 149.186C952.996 156.848 944.06 162.825 933.672 167.116C923.437 171.253 912.133 173.322 899.759 173.322C887.385 173.322 876.005 171.253 865.617 167.116C855.382 162.825 846.445 156.848 838.807 149.186C831.169 141.523 825.288 132.558 821.163 122.291C817.039 111.87 814.976 100.606 814.976 88.5Z" fill="#B0C7C8"/>
<path d="M1087.78 109.188V82.9831H1166.83C1167.29 95.2429 1165.84 106.813 1162.48 117.694C1159.27 128.574 1154.16 138.229 1147.13 146.657C1140.25 154.932 1131.7 161.445 1121.46 166.196C1111.23 170.947 1099.54 173.322 1086.41 173.322C1074.03 173.322 1062.58 171.253 1052.03 167.116C1041.65 162.978 1032.56 157.155 1024.77 149.645C1017.13 142.136 1011.17 133.171 1006.89 122.751C1002.77 112.33 1000.71 100.913 1000.71 88.5C1000.71 76.087 1002.85 64.7468 1007.12 54.4792C1011.55 44.0584 1017.66 35.1701 1025.45 27.8143C1033.24 20.4584 1042.41 14.7883 1052.95 10.8039C1063.49 6.81948 1074.95 4.82727 1087.32 4.82727C1098.32 4.82727 1108.17 6.35974 1116.88 9.42468C1125.74 12.4896 1133.53 16.7805 1140.25 22.2974C1147.13 27.661 1153.01 34.0974 1157.9 41.6065L1129.94 57.9273C1125.97 50.8779 1120.4 45.2078 1113.22 40.9169C1106.19 36.4727 1097.56 34.2507 1087.32 34.2507C1077.7 34.2507 1068.91 36.4727 1060.97 40.9169C1053.03 45.2078 1046.69 51.4143 1041.95 59.5364C1037.37 67.6584 1035.08 77.313 1035.08 88.5C1035.08 99.5338 1037.37 109.265 1041.95 117.694C1046.54 125.969 1052.72 132.405 1060.51 137.003C1068.46 141.6 1077.39 143.899 1087.32 143.899C1093.89 143.899 1099.7 143.056 1104.74 141.37C1109.93 139.531 1114.44 137.003 1118.26 133.784C1122.08 130.566 1125.28 126.888 1127.88 122.751C1130.48 118.613 1132.46 114.092 1133.84 109.188H1087.78Z" fill="#B0C7C8"/>
<path d="M1193.59 8.04545H1226.81V168.955H1193.59V8.04545Z" fill="#B0C7C8"/>
<path d="M1275.37 114.935C1278.73 120.912 1282.4 126.122 1286.37 130.566C1290.49 135.01 1295 138.458 1299.89 140.91C1304.78 143.362 1310.05 144.588 1315.7 144.588C1322.27 144.588 1327.61 142.903 1331.74 139.531C1335.86 136.16 1337.93 131.562 1337.93 125.739C1337.93 120.682 1336.63 116.621 1334.03 113.556C1331.59 110.491 1327.84 107.809 1322.8 105.51C1317.91 103.058 1311.88 100.453 1304.7 97.6948C1300.88 96.3156 1296.45 94.4766 1291.41 92.1779C1286.52 89.726 1281.86 86.661 1277.43 82.9831C1273 79.152 1269.34 74.5546 1266.43 69.1909C1263.53 63.674 1262.08 57.0844 1262.08 49.4221C1262.08 40.2273 1264.37 32.3351 1268.95 25.7455C1273.69 19.0026 1280.03 13.8688 1287.97 10.3441C1296.07 6.66623 1305.08 4.82727 1315.01 4.82727C1325.25 4.82727 1334.03 6.5896 1341.36 10.1143C1348.85 13.4857 1355.03 17.8532 1359.92 23.2169C1364.96 28.4273 1368.86 33.8675 1371.61 39.5377L1345.95 53.7896C1343.81 49.9584 1341.21 46.5104 1338.15 43.4455C1335.25 40.2273 1331.89 37.6987 1328.07 35.8597C1324.25 33.8675 1319.9 32.8714 1315.01 32.8714C1308.6 32.8714 1303.78 34.4039 1300.58 37.4688C1297.37 40.3805 1295.76 43.8286 1295.76 47.813C1295.76 51.7974 1297.06 55.3221 1299.66 58.387C1302.26 61.2987 1306.23 64.1338 1311.57 66.8922C1316.92 69.4974 1323.64 72.1792 1331.74 74.9377C1336.93 76.7766 1341.9 79.0753 1346.63 81.8338C1351.52 84.5922 1355.87 87.9636 1359.69 91.9481C1363.67 95.7792 1366.72 100.377 1368.86 105.74C1371.15 110.951 1372.3 117.004 1372.3 123.9C1372.3 131.716 1370.77 138.688 1367.71 144.818C1364.66 150.948 1360.46 156.158 1355.11 160.449C1349.76 164.587 1343.73 167.729 1337.01 169.874C1330.44 172.173 1323.49 173.322 1316.16 173.322C1306.38 173.322 1297.21 171.483 1288.66 167.805C1280.26 163.974 1272.93 158.84 1266.66 152.404C1260.4 145.968 1255.51 138.995 1252 131.486L1275.37 114.935Z" fill="#B0C7C8"/>
<path d="M1382.97 37.6987V8.04545H1502.13V37.6987H1458.82V168.955H1426.05V37.6987H1382.97Z" fill="#B0C7C8"/>
<path d="M1520.74 8.04545H1553.97V168.955H1520.74V8.04545Z" fill="#B0C7C8"/>
<path d="M1614.9 88.5C1614.9 99.074 1617.27 108.345 1622 116.314C1626.89 124.13 1633.23 130.183 1641.02 134.474C1648.81 138.612 1657.29 140.681 1666.45 140.681C1674.09 140.681 1680.89 139.684 1686.85 137.692C1692.81 135.7 1698.15 133.018 1702.89 129.647C1707.78 126.275 1711.98 122.597 1715.49 118.613V155.622C1708.92 160.832 1701.74 164.894 1693.95 167.805C1686.31 170.717 1676.61 172.173 1664.85 172.173C1652.63 172.173 1641.25 170.181 1630.71 166.196C1620.32 162.212 1611.23 156.465 1603.44 148.956C1595.8 141.447 1589.84 132.635 1585.57 122.521C1581.44 112.253 1579.38 100.913 1579.38 88.5C1579.38 76.087 1581.44 64.8234 1585.57 54.7091C1589.84 44.4416 1595.8 35.5532 1603.44 28.0442C1611.23 20.5351 1620.32 14.7883 1630.71 10.8039C1641.25 6.81948 1652.63 4.82727 1664.85 4.82727C1676.61 4.82727 1686.31 6.28311 1693.95 9.1948C1701.74 12.1065 1708.92 16.1675 1715.49 21.3779V58.387C1711.98 54.4026 1707.78 50.7247 1702.89 47.3532C1698.15 43.9818 1692.81 41.3 1686.85 39.3078C1680.89 37.3156 1674.09 36.3195 1666.45 36.3195C1657.29 36.3195 1648.81 38.4649 1641.02 42.7558C1633.23 46.8935 1626.89 52.8701 1622 60.6857C1617.27 68.5013 1614.9 77.7727 1614.9 88.5Z" fill="#B0C7C8"/>
<path d="M1762.07 114.935C1765.43 120.912 1769.1 126.122 1773.07 130.566C1777.2 135.01 1781.7 138.458 1786.59 140.91C1791.48 143.362 1796.75 144.588 1802.4 144.588C1808.97 144.588 1814.32 142.903 1818.44 139.531C1822.57 136.16 1824.63 131.562 1824.63 125.739C1824.63 120.682 1823.33 116.621 1820.73 113.556C1818.29 110.491 1814.55 107.809 1809.51 105.51C1804.62 103.058 1798.58 100.453 1791.4 97.6948C1787.58 96.3156 1783.15 94.4766 1778.11 92.1779C1773.22 89.726 1768.57 86.661 1764.14 82.9831C1759.71 79.152 1756.04 74.5546 1753.14 69.1909C1750.23 63.674 1748.78 57.0844 1748.78 49.4221C1748.78 40.2273 1751.07 32.3351 1755.66 25.7455C1760.39 19.0026 1766.73 13.8688 1774.68 10.3441C1782.77 6.66623 1791.78 4.82727 1801.71 4.82727C1811.95 4.82727 1820.73 6.5896 1828.07 10.1143C1835.55 13.4857 1841.74 17.8532 1846.63 23.2169C1851.67 28.4273 1855.56 33.8675 1858.31 39.5377L1832.65 53.7896C1830.51 49.9584 1827.91 46.5104 1824.86 43.4455C1821.96 40.2273 1818.59 37.6987 1814.78 35.8597C1810.96 33.8675 1806.6 32.8714 1801.71 32.8714C1795.3 32.8714 1790.49 34.4039 1787.28 37.4688C1784.07 40.3805 1782.47 43.8286 1782.47 47.813C1782.47 51.7974 1783.77 55.3221 1786.36 58.387C1788.96 61.2987 1792.93 64.1338 1798.28 66.8922C1803.62 69.4974 1810.35 72.1792 1818.44 74.9377C1823.64 76.7766 1828.6 79.0753 1833.34 81.8338C1838.22 84.5922 1842.58 87.9636 1846.4 91.9481C1850.37 95.7792 1853.42 100.377 1855.56 105.74C1857.85 110.951 1859 117.004 1859 123.9C1859 131.716 1857.47 138.688 1854.42 144.818C1851.36 150.948 1847.16 156.158 1841.81 160.449C1836.47 164.587 1830.43 167.729 1823.71 169.874C1817.14 172.173 1810.19 173.322 1802.86 173.322C1793.08 173.322 1783.92 171.483 1775.36 167.805C1766.96 163.974 1759.63 158.84 1753.37 152.404C1747.1 145.968 1742.21 138.995 1738.7 131.486L1762.07 114.935Z" fill="#B0C7C8"/>
</g>
</svg>

<svg width="1859" height="177" fill="none" xmlns="http://www.w3.org/2000/svg"><path d="M34.6 88.5c0 10.267 2.14 19.386 6.416 27.355 4.278 7.968 10.16 14.252 17.644 18.849 7.486 4.597 16.193 6.896 26.123 6.896s18.637-2.299 26.122-6.896c7.485-4.597 13.29-10.881 17.415-18.849 4.277-7.969 6.416-17.088 6.416-27.355s-2.063-19.386-6.187-27.355c-4.125-7.968-9.93-14.252-17.415-18.849-7.485-4.597-16.27-6.896-26.351-6.896-9.93 0-18.637 2.299-26.123 6.896-7.485 4.598-13.366 10.88-17.644 18.85C36.74 69.114 34.6 78.233 34.6 88.5ZM0 88.5c0-12.26 2.139-23.447 6.416-33.561 4.277-10.268 10.235-19.156 17.873-26.665 7.638-7.51 16.575-13.256 26.81-17.24 10.388-4.138 21.616-6.207 33.684-6.207 12.22 0 23.448 2.07 33.684 6.207 10.235 3.984 19.171 9.73 26.809 17.24 7.791 7.51 13.749 16.397 17.873 26.665 4.278 10.114 6.416 21.301 6.416 33.561 0 12.106-2.138 23.37-6.416 33.791-4.124 10.267-10.006 19.232-17.644 26.895-7.485 7.662-16.422 13.639-26.809 17.93-10.235 4.137-21.54 6.206-33.913 6.206-12.374 0-23.755-2.069-34.143-6.206-10.235-4.291-19.171-10.268-26.81-17.93-7.637-7.663-13.519-16.628-17.643-26.895C2.062 111.87 0 100.606 0 88.5ZM194.896 8.045h32.767v160.91h-32.767V8.045Zm19.936 27.815V8.045h31.85c12.679 0 23.449 2.07 32.309 6.207 9.013 4.138 15.888 10.038 20.623 17.7 4.736 7.662 7.104 16.78 7.104 27.354 0 10.421-2.368 19.54-7.104 27.355-4.735 7.662-11.61 13.562-20.623 17.7-8.86 4.138-19.63 6.207-32.309 6.207h-31.85V82.753h31.85c8.708 0 15.582-1.992 20.623-5.976 5.041-3.985 7.562-9.808 7.562-17.47 0-7.816-2.521-13.64-7.562-17.47-5.041-3.985-11.915-5.977-20.623-5.977h-31.85Zm138.317 133.095V141.14h80.887v27.815h-80.887Zm0-133.095V8.045h80.887V35.86h-80.887Zm0 61.375V69.88h76.305v27.355h-76.305Zm-21.081-89.19h31.622v160.91h-31.622V8.045Zm248.376 0h31.622V177L497.953 69.19v99.765h-31.622V0l114.113 107.809V8.045Zm135.169 0h32.767v132.176h63.931v28.734h-96.698V8.045ZM849.577 88.5c0 10.267 2.139 19.386 6.416 27.355 4.277 7.968 10.158 14.252 17.644 18.849 7.485 4.597 16.192 6.896 26.122 6.896 9.929 0 18.637-2.299 26.122-6.896 7.486-4.597 13.29-10.881 17.415-18.849 4.277-7.969 6.416-17.088 6.416-27.355s-2.062-19.386-6.187-27.355c-4.124-7.968-9.929-14.252-17.415-18.849-7.485-4.597-16.269-6.896-26.351-6.896-9.93 0-18.637 2.299-26.122 6.896-7.486 4.598-13.367 10.88-17.644 18.85-4.277 7.968-6.416 17.087-6.416 27.354Zm-34.601 0c0-12.26 2.139-23.447 6.416-33.561 4.278-10.268 10.235-19.156 17.873-26.665 7.639-7.51 16.575-13.256 26.81-17.24 10.388-4.138 21.616-6.207 33.684-6.207 12.221 0 23.449 2.07 33.684 6.207 10.235 3.984 19.171 9.73 26.81 17.24 7.79 7.51 13.748 16.397 17.873 26.665 4.277 10.114 6.416 21.301 6.416 33.561 0 12.106-2.139 23.37-6.416 33.791-4.125 10.267-10.006 19.232-17.644 26.895-7.486 7.662-16.422 13.639-26.81 17.93-10.235 4.137-21.539 6.206-33.913 6.206-12.374 0-23.754-2.069-34.142-6.206-10.235-4.291-19.172-10.268-26.81-17.93-7.638-7.663-13.519-16.628-17.644-26.895-4.124-10.421-6.187-21.685-6.187-33.791Zm272.804 20.688V82.983h79.05c.46 12.26-.99 23.83-4.35 34.711-3.21 10.88-8.32 20.535-15.35 28.963-6.88 8.275-15.43 14.788-25.67 19.539-10.23 4.751-21.92 7.126-35.05 7.126-12.38 0-23.83-2.069-34.38-6.206-10.38-4.138-19.47-9.961-27.26-17.471-7.64-7.509-13.6-16.474-17.88-26.894-4.12-10.421-6.18-21.838-6.18-34.251 0-12.413 2.14-23.753 6.41-34.02 4.43-10.422 10.54-19.31 18.33-26.666 7.79-7.356 16.96-13.026 27.5-17.01 10.54-3.985 22-5.977 34.37-5.977 11 0 20.85 1.533 29.56 4.598 8.86 3.065 16.65 7.355 23.37 12.872 6.88 5.364 12.76 11.8 17.65 19.31l-27.96 16.32c-3.97-7.05-9.54-12.72-16.72-17.01-7.03-4.444-15.66-6.666-25.9-6.666-9.62 0-18.41 2.222-26.35 6.666-7.94 4.29-14.28 10.497-19.02 18.62-4.58 8.121-6.87 17.776-6.87 28.963 0 11.034 2.29 20.765 6.87 29.194 4.59 8.275 10.77 14.711 18.56 19.309 7.95 4.597 16.88 6.896 26.81 6.896 6.57 0 12.38-.843 17.42-2.529 5.19-1.839 9.7-4.367 13.52-7.586a47.166 47.166 0 0 0 9.62-11.033c2.6-4.138 4.58-8.659 5.96-13.563h-46.06ZM1193.59 8.045h33.22v160.91h-33.22V8.045Zm81.78 106.89c3.36 5.977 7.03 11.187 11 15.631 4.12 4.444 8.63 7.892 13.52 10.344 4.89 2.452 10.16 3.678 15.81 3.678 6.57 0 11.91-1.685 16.04-5.057 4.12-3.371 6.19-7.969 6.19-13.792 0-5.057-1.3-9.118-3.9-12.183-2.44-3.065-6.19-5.747-11.23-8.046-4.89-2.452-10.92-5.057-18.1-7.815-3.82-1.38-8.25-3.218-13.29-5.517-4.89-2.452-9.55-5.517-13.98-9.195-4.43-3.831-8.09-8.428-11-13.792-2.9-5.517-4.35-12.107-4.35-19.769 0-9.195 2.29-17.087 6.87-23.676 4.74-6.743 11.08-11.877 19.02-15.402 8.1-3.678 17.11-5.517 27.04-5.517 10.24 0 19.02 1.763 26.35 5.287 7.49 3.372 13.67 7.74 18.56 13.103 5.04 5.21 8.94 10.65 11.69 16.32l-25.66 14.253a47.005 47.005 0 0 0-7.8-10.344c-2.9-3.219-6.26-5.747-10.08-7.586-3.82-1.992-8.17-2.989-13.06-2.989-6.41 0-11.23 1.533-14.43 4.598-3.21 2.911-4.82 6.36-4.82 10.344 0 3.984 1.3 7.51 3.9 10.574 2.6 2.912 6.57 5.747 11.91 8.505 5.35 2.605 12.07 5.287 20.17 8.046a87.524 87.524 0 0 1 14.89 6.896 56.291 56.291 0 0 1 13.06 10.114c3.98 3.831 7.03 8.429 9.17 13.792 2.29 5.211 3.44 11.264 3.44 18.16 0 7.816-1.53 14.788-4.59 20.918-3.05 6.13-7.25 11.34-12.6 15.631-5.35 4.138-11.38 7.28-18.1 9.425-6.57 2.299-13.52 3.448-20.85 3.448-9.78 0-18.95-1.839-27.5-5.517-8.4-3.831-15.73-8.965-22-15.401-6.26-6.436-11.15-13.409-14.66-20.918l23.37-16.551Zm107.6-77.236V8.045h119.16V37.7h-43.31v131.256h-32.77V37.699h-43.08Zm137.77-29.654h33.23v160.91h-33.23V8.045ZM1614.9 88.5c0 10.574 2.37 19.845 7.1 27.814 4.89 7.816 11.23 13.869 19.02 18.16 7.79 4.138 16.27 6.207 25.43 6.207 7.64 0 14.44-.997 20.4-2.989 5.96-1.992 11.3-4.674 16.04-8.045 4.89-3.372 9.09-7.05 12.6-11.034v37.009c-6.57 5.21-13.75 9.272-21.54 12.183-7.64 2.912-17.34 4.368-29.1 4.368-12.22 0-23.6-1.992-34.14-5.977-10.39-3.984-19.48-9.731-27.27-17.24-7.64-7.509-13.6-16.321-17.87-26.435-4.13-10.268-6.19-21.608-6.19-34.021s2.06-23.677 6.19-33.79c4.27-10.268 10.23-19.157 17.87-26.666 7.79-7.509 16.88-13.256 27.27-17.24 10.54-3.985 21.92-5.977 34.14-5.977 11.76 0 21.46 1.456 29.1 4.368 7.79 2.912 14.97 6.973 21.54 12.183v37.009c-3.51-3.984-7.71-7.662-12.6-11.034-4.74-3.371-10.08-6.053-16.04-8.045-5.96-1.992-12.76-2.989-20.4-2.989-9.16 0-17.64 2.146-25.43 6.437-7.79 4.138-14.13 10.114-19.02 17.93-4.73 7.815-7.1 17.087-7.1 27.814Zm147.17 26.435c3.36 5.977 7.03 11.187 11 15.631 4.13 4.444 8.63 7.892 13.52 10.344 4.89 2.452 10.16 3.678 15.81 3.678 6.57 0 11.92-1.685 16.04-5.057 4.13-3.371 6.19-7.969 6.19-13.792 0-5.057-1.3-9.118-3.9-12.183-2.44-3.065-6.18-5.747-11.22-8.046-4.89-2.452-10.93-5.057-18.11-7.815-3.82-1.38-8.25-3.218-13.29-5.517-4.89-2.452-9.54-5.517-13.97-9.195-4.43-3.831-8.1-8.428-11-13.792-2.91-5.517-4.36-12.107-4.36-19.769 0-9.195 2.29-17.087 6.88-23.676 4.73-6.743 11.07-11.877 19.02-15.402 8.09-3.678 17.1-5.517 27.03-5.517 10.24 0 19.02 1.763 26.36 5.287 7.48 3.372 13.67 7.74 18.56 13.103 5.04 5.21 8.93 10.65 11.68 16.32l-25.66 14.253a47.275 47.275 0 0 0-7.79-10.344c-2.9-3.219-6.27-5.747-10.08-7.586-3.82-1.992-8.18-2.989-13.07-2.989-6.41 0-11.22 1.533-14.43 4.598-3.21 2.911-4.81 6.36-4.81 10.344 0 3.984 1.3 7.51 3.89 10.574 2.6 2.912 6.57 5.747 11.92 8.505 5.34 2.605 12.07 5.287 20.16 8.046a87.62 87.62 0 0 1 14.9 6.896c4.88 2.758 9.24 6.13 13.06 10.114 3.97 3.831 7.02 8.429 9.16 13.792 2.29 5.211 3.44 11.264 3.44 18.16 0 7.816-1.53 14.788-4.58 20.918-3.06 6.13-7.26 11.34-12.61 15.631-5.34 4.138-11.38 7.28-18.1 9.425-6.57 2.299-13.52 3.448-20.85 3.448-9.78 0-18.94-1.839-27.5-5.517-8.4-3.831-15.73-8.965-21.99-15.401-6.27-6.436-11.16-13.409-14.67-20.918l23.37-16.551Z" opacity=".5" fill="#B0C7C8"/></svg>
